svg/view_grid_plus_outline.svg

<svg xmlns="http://www.w3.org/2000/svg" viewBox="0 0 24 24"><path d="M3 21h8v-8H3m2 2h4v4H5m-2-8h8V3H3m2 2h4v4H5m8-6v8h8V3m-2 6h-4V5h4m-1 11h3v2h-3v3h-2v-3h-3v-2h3v-3h2Z"/></svg>

<?xml version="1.0" encoding="UTF-8"?><!DOCTYPE svg PUBLIC "-//W3C//DTD SVG 1.1//EN" "http://www.w3.org/Graphics/SVG/1.1/DTD/svg11.dtd"><svg xmlns="http://www.w3.org/2000/svg" xmlns:xlink="http://www.w3.org/1999/xlink" version="1.1" id="mdi-view-grid-plus-outline" width="24" height="24" viewBox="0 0 24 24"><path d="M3 21H11V13H3M5 15H9V19H5M3 11H11V3H3M5 5H9V9H5M13 3V11H21V3M19 9H15V5H19M18 16H21V18H18V21H16V18H13V16H16V13H18Z" /></svg>
